images/3232727.svg

<?xml version="1.0" encoding="UTF-8"?>
<svg xmlns="http://www.w3.org/2000/svg" xmlns:xlink="http://www.w3.org/1999/xlink" width="300pt" height="300pt" viewBox="0 0 300 300" version="1.1">
<defs>
<g>
<symbol overflow="visible" id="glyph0-0">
<path style="stroke:none;" d="M 0.453125 1.59375 L 0.453125 -6.34375 L 4.953125 -6.34375 L 4.953125 1.59375 Z M 0.953125 1.09375 L 4.453125 1.09375 L 4.453125 -5.84375 L 0.953125 -5.84375 Z M 0.953125 1.09375 "/>
</symbol>
<symbol overflow="visible" id="glyph0-1">
<path style="stroke:none;" d="M 3.546875 -5.953125 C 2.898438 -5.953125 2.382812 -5.710938 2 -5.234375 C 1.625 -4.753906 1.4375 -4.101562 1.4375 -3.28125 C 1.4375 -2.445312 1.625 -1.789062 2 -1.3125 C 2.382812 -0.832031 2.898438 -0.59375 3.546875 -0.59375 C 4.191406 -0.59375 4.703125 -0.832031 5.078125 -1.3125 C 5.453125 -1.789062 5.640625 -2.445312 5.640625 -3.28125 C 5.640625 -4.101562 5.453125 -4.753906 5.078125 -5.234375 C 4.703125 -5.710938 4.191406 -5.953125 3.546875 -5.953125 Z M 3.546875 -6.6875 C 4.460938 -6.6875 5.195312 -6.375 5.75 -5.75 C 6.300781 -5.132812 6.578125 -4.3125 6.578125 -3.28125 C 6.578125 -2.238281 6.300781 -1.410156 5.75 -0.796875 C 5.195312 -0.179688 4.460938 0.125 3.546875 0.125 C 2.617188 0.125 1.878906 -0.179688 1.328125 -0.796875 C 0.773438 -1.410156 0.5 -2.238281 0.5 -3.28125 C 0.5 -4.3125 0.773438 -5.132812 1.328125 -5.75 C 1.878906 -6.375 2.617188 -6.6875 3.546875 -6.6875 Z M 3.546875 -6.6875 "/>
</symbol>
<symbol overflow="visible" id="glyph0-2">
<path style="stroke:none;" d="M 0.890625 -6.5625 L 2.078125 -6.5625 L 4.984375 -1.078125 L 4.984375 -6.5625 L 5.84375 -6.5625 L 5.84375 0 L 4.65625 0 L 1.75 -5.484375 L 1.75 0 L 0.890625 0 Z M 0.890625 -6.5625 "/>
</symbol>
</g>
</defs>
<g id="surface47141">
<rect x="0" y="0" width="300" height="300" style="fill:rgb(100%,100%,100%);fill-opacity:1;stroke:none;"/>
<path style="fill:none;stroke-width:1.2;stroke-linecap:butt;stroke-linejoin:miter;stroke:rgb(0%,0%,0%);stroke-opacity:1;stroke-miterlimit:10;" d="M 35.632812 112.453125 L 35.441406 121.675781 "/>
<path style="fill:none;stroke-width:1.2;stroke-linecap:butt;stroke-linejoin:miter;stroke:rgb(100%,0%,0%);stroke-opacity:1;stroke-miterlimit:10;" d="M 35.441406 121.675781 L 35.25 130.894531 "/>
<path style="fill:none;stroke-width:1.2;stroke-linecap:butt;stroke-linejoin:miter;stroke:rgb(100%,0%,0%);stroke-opacity:1;stroke-miterlimit:10;" d="M 35.25 130.894531 L 43.140625 135.671875 "/>
<path style="fill:none;stroke-width:1.2;stroke-linecap:butt;stroke-linejoin:miter;stroke:rgb(0%,0%,0%);stroke-opacity:1;stroke-miterlimit:10;" d="M 43.140625 135.671875 L 51.027344 140.449219 "/>
<path style=" stroke:none;fill-rule:nonzero;fill:rgb(100%,100%,100%);fill-opacity:1;" d="M 31.25 125.394531 L 39.25 125.394531 L 39.25 136.394531 L 31.25 136.394531 Z M 31.25 125.394531 "/>
<g style="fill:rgb(100%,0%,0%);fill-opacity:1;">
  <use xlink:href="#glyph0-1" x="31.25" y="134.057617"/>
</g>
<path style="fill:none;stroke-width:1.2;stroke-linecap:butt;stroke-linejoin:miter;stroke:rgb(0%,0%,0%);stroke-opacity:1;stroke-miterlimit:10;" d="M 51.027344 140.449219 L 67.1875 131.558594 "/>
<path style="fill:none;stroke-width:1.2;stroke-linecap:butt;stroke-linejoin:miter;stroke:rgb(0%,0%,0%);stroke-opacity:1;stroke-miterlimit:10;" d="M 54.734375 143.363281 L 67.664062 136.25 "/>
<path style="fill:none;stroke-width:1.2;stroke-linecap:butt;stroke-linejoin:miter;stroke:rgb(0%,0%,0%);stroke-opacity:1;stroke-miterlimit:10;" d="M 50.644531 158.886719 L 51.027344 140.449219 "/>
<path style="fill:none;stroke-width:1.2;stroke-linecap:butt;stroke-linejoin:miter;stroke:rgb(0%,0%,0%);stroke-opacity:1;stroke-miterlimit:10;" d="M 67.1875 131.558594 L 82.964844 141.113281 "/>
<path style="fill:none;stroke-width:1.2;stroke-linecap:butt;stroke-linejoin:miter;stroke:rgb(0%,0%,0%);stroke-opacity:1;stroke-miterlimit:10;" d="M 82.964844 141.113281 L 82.582031 159.550781 "/>
<path style="fill:none;stroke-width:1.2;stroke-linecap:butt;stroke-linejoin:miter;stroke:rgb(0%,0%,0%);stroke-opacity:1;stroke-miterlimit:10;" d="M 78.589844 142.867188 L 78.28125 157.617188 "/>
<path style="fill:none;stroke-width:1.2;stroke-linecap:butt;stroke-linejoin:miter;stroke:rgb(0%,0%,0%);stroke-opacity:1;stroke-miterlimit:10;" d="M 82.582031 159.550781 L 66.421875 168.441406 "/>
<path style="fill:none;stroke-width:1.2;stroke-linecap:butt;stroke-linejoin:miter;stroke:rgb(0%,0%,0%);stroke-opacity:1;stroke-miterlimit:10;" d="M 82.582031 159.550781 L 98.359375 169.105469 "/>
<path style="fill:none;stroke-width:1.2;stroke-linecap:butt;stroke-linejoin:miter;stroke:rgb(0%,0%,0%);stroke-opacity:1;stroke-miterlimit:10;" d="M 66.421875 168.441406 L 50.644531 158.886719 "/>
<path style="fill:none;stroke-width:1.2;stroke-linecap:butt;stroke-linejoin:miter;stroke:rgb(0%,0%,0%);stroke-opacity:1;stroke-miterlimit:10;" d="M 67.089844 163.773438 L 54.46875 156.128906 "/>
<path style="fill:none;stroke-width:1.2;stroke-linecap:butt;stroke-linejoin:miter;stroke:rgb(0%,0%,0%);stroke-opacity:1;stroke-miterlimit:10;" d="M 96.191406 169.058594 L 96 178.28125 "/>
<path style="fill:none;stroke-width:1.2;stroke-linecap:butt;stroke-linejoin:miter;stroke:rgb(100%,0%,0%);stroke-opacity:1;stroke-miterlimit:10;" d="M 96 178.28125 L 95.808594 187.5 "/>
<path style="fill:none;stroke-width:1.2;stroke-linecap:butt;stroke-linejoin:miter;stroke:rgb(0%,0%,0%);stroke-opacity:1;stroke-miterlimit:10;" d="M 100.53125 169.148438 L 100.335938 178.371094 "/>
<path style="fill:none;stroke-width:1.2;stroke-linecap:butt;stroke-linejoin:miter;stroke:rgb(100%,0%,0%);stroke-opacity:1;stroke-miterlimit:10;" d="M 100.335938 178.371094 L 100.144531 187.589844 "/>
<path style="fill:none;stroke-width:1.2;stroke-linecap:butt;stroke-linejoin:miter;stroke:rgb(0%,0%,0%);stroke-opacity:1;stroke-miterlimit:10;" d="M 98.359375 169.105469 L 106.441406 164.660156 "/>
<path style="fill:none;stroke-width:1.2;stroke-linecap:butt;stroke-linejoin:miter;stroke:rgb(0%,0%,100%);stroke-opacity:1;stroke-miterlimit:10;" d="M 106.441406 164.660156 L 114.523438 160.21875 "/>
<path style=" stroke:none;fill-rule:nonzero;fill:rgb(100%,100%,100%);fill-opacity:1;" d="M 93.976562 182.046875 L 101.976562 182.046875 L 101.976562 193.046875 L 93.976562 193.046875 Z M 93.976562 182.046875 "/>
<g style="fill:rgb(100%,0%,0%);fill-opacity:1;">
  <use xlink:href="#glyph0-1" x="93.976562" y="190.709961"/>
</g>
<path style="fill:none;stroke-width:1.2;stroke-linecap:butt;stroke-linejoin:miter;stroke:rgb(0%,0%,100%);stroke-opacity:1;stroke-miterlimit:10;" d="M 114.523438 160.21875 L 122.410156 164.992188 "/>
<path style="fill:none;stroke-width:1.2;stroke-linecap:butt;stroke-linejoin:miter;stroke:rgb(0%,0%,0%);stroke-opacity:1;stroke-miterlimit:10;" d="M 122.410156 164.992188 L 130.300781 169.769531 "/>
<path style="fill:none;stroke-width:1.2;stroke-linecap:butt;stroke-linejoin:miter;stroke:rgb(0%,0%,0%);stroke-opacity:1;stroke-miterlimit:10;" d="M 114.90625 141.777344 L 114.714844 150.996094 "/>
<path style="fill:none;stroke-width:1.2;stroke-linecap:butt;stroke-linejoin:miter;stroke:rgb(0%,0%,100%);stroke-opacity:1;stroke-miterlimit:10;" d="M 114.714844 150.996094 L 114.523438 160.21875 "/>
<path style=" stroke:none;fill-rule:nonzero;fill:rgb(100%,100%,100%);fill-opacity:1;" d="M 111.523438 154.71875 L 118.523438 154.71875 L 118.523438 165.71875 L 111.523438 165.71875 Z M 111.523438 154.71875 "/>
<g style="fill:rgb(0%,0%,100%);fill-opacity:1;">
  <use xlink:href="#glyph0-2" x="111.523438" y="163.381836"/>
</g>
<path style="fill:none;stroke-width:1.2;stroke-linecap:butt;stroke-linejoin:miter;stroke:rgb(0%,0%,0%);stroke-opacity:1;stroke-miterlimit:10;" d="M 130.300781 169.769531 L 146.460938 160.882812 "/>
<path style="fill:none;stroke-width:1.2;stroke-linecap:butt;stroke-linejoin:miter;stroke:rgb(0%,0%,0%);stroke-opacity:1;stroke-miterlimit:10;" d="M 146.460938 160.882812 L 146.84375 142.441406 "/>
<path style="fill:none;stroke-width:1.2;stroke-linecap:butt;stroke-linejoin:miter;stroke:rgb(0%,0%,0%);stroke-opacity:1;stroke-miterlimit:10;" d="M 146.84375 142.441406 L 131.066406 132.890625 "/>
<path style="fill:none;stroke-width:1.2;stroke-linecap:butt;stroke-linejoin:miter;stroke:rgb(0%,0%,0%);stroke-opacity:1;stroke-miterlimit:10;" d="M 146.84375 142.441406 L 164.558594 147.585938 "/>
<path style="fill:none;stroke-width:1.2;stroke-linecap:butt;stroke-linejoin:miter;stroke:rgb(0%,0%,0%);stroke-opacity:1;stroke-miterlimit:10;" d="M 151.988281 124.730469 L 146.84375 142.441406 "/>
<path style="fill:none;stroke-width:1.2;stroke-linecap:butt;stroke-linejoin:miter;stroke:rgb(0%,0%,0%);stroke-opacity:1;stroke-miterlimit:10;" d="M 131.066406 132.890625 L 114.90625 141.777344 "/>
<path style="fill:none;stroke-width:1.2;stroke-linecap:butt;stroke-linejoin:miter;stroke:rgb(0%,0%,0%);stroke-opacity:1;stroke-miterlimit:10;" d="M 164.558594 147.585938 L 167.128906 138.730469 "/>
<path style="fill:none;stroke-width:1.2;stroke-linecap:butt;stroke-linejoin:miter;stroke:rgb(0%,0%,100%);stroke-opacity:1;stroke-miterlimit:10;" d="M 167.128906 138.730469 L 169.699219 129.875 "/>
<path style="fill:none;stroke-width:1.2;stroke-linecap:butt;stroke-linejoin:miter;stroke:rgb(0%,0%,100%);stroke-opacity:1;stroke-miterlimit:10;" d="M 169.699219 129.875 L 160.84375 127.300781 "/>
<path style="fill:none;stroke-width:1.2;stroke-linecap:butt;stroke-linejoin:miter;stroke:rgb(0%,0%,0%);stroke-opacity:1;stroke-miterlimit:10;" d="M 160.84375 127.300781 L 151.988281 124.730469 "/>
<path style="fill:none;stroke-width:1.2;stroke-linecap:butt;stroke-linejoin:miter;stroke:rgb(0%,0%,100%);stroke-opacity:1;stroke-miterlimit:10;" d="M 169.699219 129.875 L 177.78125 125.429688 "/>
<path style="fill:none;stroke-width:1.2;stroke-linecap:butt;stroke-linejoin:miter;stroke:rgb(0%,0%,0%);stroke-opacity:1;stroke-miterlimit:10;" d="M 177.78125 125.429688 L 185.863281 120.984375 "/>
<path style=" stroke:none;fill-rule:nonzero;fill:rgb(100%,100%,100%);fill-opacity:1;" d="M 166.699219 124.375 L 173.699219 124.375 L 173.699219 135.375 L 166.699219 135.375 Z M 166.699219 124.375 "/>
<g style="fill:rgb(0%,0%,100%);fill-opacity:1;">
  <use xlink:href="#glyph0-2" x="166.699219" y="133.038086"/>
</g>
<path style="fill:none;stroke-width:1.2;stroke-linecap:butt;stroke-linejoin:miter;stroke:rgb(0%,0%,0%);stroke-opacity:1;stroke-miterlimit:10;" d="M 185.863281 120.984375 L 201.640625 130.539062 "/>
<path style="fill:none;stroke-width:1.2;stroke-linecap:butt;stroke-linejoin:miter;stroke:rgb(0%,0%,0%);stroke-opacity:1;stroke-miterlimit:10;" d="M 201.640625 130.539062 L 201.253906 148.976562 "/>
<path style="fill:none;stroke-width:1.2;stroke-linecap:butt;stroke-linejoin:miter;stroke:rgb(0%,0%,0%);stroke-opacity:1;stroke-miterlimit:10;" d="M 205.941406 132.472656 L 205.632812 147.226562 "/>
<path style="fill:none;stroke-width:1.2;stroke-linecap:butt;stroke-linejoin:miter;stroke:rgb(0%,0%,0%);stroke-opacity:1;stroke-miterlimit:10;" d="M 217.800781 121.652344 L 201.640625 130.539062 "/>
<path style="fill:none;stroke-width:1.2;stroke-linecap:butt;stroke-linejoin:miter;stroke:rgb(0%,0%,0%);stroke-opacity:1;stroke-miterlimit:10;" d="M 201.253906 148.976562 L 217.035156 158.53125 "/>
<path style="fill:none;stroke-width:1.2;stroke-linecap:butt;stroke-linejoin:miter;stroke:rgb(0%,0%,0%);stroke-opacity:1;stroke-miterlimit:10;" d="M 217.035156 158.53125 L 233.195312 149.644531 "/>
<path style="fill:none;stroke-width:1.2;stroke-linecap:butt;stroke-linejoin:miter;stroke:rgb(0%,0%,0%);stroke-opacity:1;stroke-miterlimit:10;" d="M 216.558594 153.839844 L 229.488281 146.730469 "/>
<path style="fill:none;stroke-width:1.2;stroke-linecap:butt;stroke-linejoin:miter;stroke:rgb(0%,0%,0%);stroke-opacity:1;stroke-miterlimit:10;" d="M 233.195312 149.644531 L 233.578125 131.203125 "/>
<path style="fill:none;stroke-width:1.2;stroke-linecap:butt;stroke-linejoin:miter;stroke:rgb(0%,0%,0%);stroke-opacity:1;stroke-miterlimit:10;" d="M 233.195312 149.644531 L 248.972656 159.195312 "/>
<path style="fill:none;stroke-width:1.2;stroke-linecap:butt;stroke-linejoin:miter;stroke:rgb(0%,0%,0%);stroke-opacity:1;stroke-miterlimit:10;" d="M 233.578125 131.203125 L 217.800781 121.652344 "/>
<path style="fill:none;stroke-width:1.2;stroke-linecap:butt;stroke-linejoin:miter;stroke:rgb(0%,0%,0%);stroke-opacity:1;stroke-miterlimit:10;" d="M 229.753906 133.960938 L 217.132812 126.316406 "/>
<path style="fill:none;stroke-width:1.2;stroke-linecap:butt;stroke-linejoin:miter;stroke:rgb(0%,0%,0%);stroke-opacity:1;stroke-miterlimit:10;" d="M 248.972656 159.195312 L 256.859375 163.972656 "/>
<path style="fill:none;stroke-width:1.2;stroke-linecap:butt;stroke-linejoin:miter;stroke:rgb(0%,0%,100%);stroke-opacity:1;stroke-miterlimit:10;" d="M 256.859375 163.972656 L 264.75 168.75 "/>
<path style="fill:none;stroke-width:1.2;stroke-linecap:butt;stroke-linejoin:miter;stroke:rgb(0%,0%,0%);stroke-opacity:1;stroke-miterlimit:10;" d="M 248.300781 163.863281 L 254.613281 167.683594 "/>
<path style="fill:none;stroke-width:1.2;stroke-linecap:butt;stroke-linejoin:miter;stroke:rgb(0%,0%,100%);stroke-opacity:1;stroke-miterlimit:10;" d="M 254.613281 167.683594 L 260.925781 171.503906 "/>
<path style="fill:none;stroke-width:1.2;stroke-linecap:butt;stroke-linejoin:miter;stroke:rgb(0%,0%,0%);stroke-opacity:1;stroke-miterlimit:10;" d="M 252.796875 156.4375 L 259.109375 160.257812 "/>
<path style="fill:none;stroke-width:1.2;stroke-linecap:butt;stroke-linejoin:miter;stroke:rgb(0%,0%,100%);stroke-opacity:1;stroke-miterlimit:10;" d="M 259.109375 160.257812 L 265.417969 164.082031 "/>
<path style=" stroke:none;fill-rule:nonzero;fill:rgb(100%,100%,100%);fill-opacity:1;" d="M 261.75 163.25 L 268.75 163.25 L 268.75 174.25 L 261.75 174.25 Z M 261.75 163.25 "/>
<g style="fill:rgb(0%,0%,100%);fill-opacity:1;">
  <use xlink:href="#glyph0-2" x="261.75" y="171.913086"/>
</g>
</g>
</svg>

<svg xmlns="http://www.w3.org/2000/svg" xmlns:xlink="http://www.w3.org/1999/xlink" width="300pt" height="300pt" viewBox="0 0 300 300"><defs><symbol overflow="visible"><path d="M.453 1.594v-7.938h4.5v7.938zm.5-.5h3.5v-6.938h-3.5zm0 0"/></symbol><symbol overflow="visible" id="a"><path d="M3.547-5.953c-.65 0-1.164.242-1.547.72-.375.48-.563 1.13-.563 1.952 0 .835.188 1.49.563 1.967.383.48.898.72 1.547.72.644 0 1.156-.24 1.53-.72.376-.476.564-1.132.564-1.968 0-.822-.187-1.474-.562-1.954-.375-.477-.887-.72-1.53-.72zm0-.734c.914 0 1.648.312 2.203.937.55.617.828 1.438.828 2.47 0 1.042-.277 1.87-.828 2.483-.555.617-1.29.922-2.203.922-.93 0-1.668-.305-2.22-.922C.774-1.41.5-2.237.5-3.28c0-1.033.273-1.853.828-2.47.55-.625 1.29-.938 2.22-.938zm0 0"/></symbol><symbol overflow="visible" id="b"><path d="M.89-6.563H2.08l2.906 5.485v-5.484h.86V0H4.656L1.75-5.484V0H.89zm0 0"/></symbol></defs><g><path fill="#fff" d="M0 0h300v300H0z"/><path d="M35.633 112.453l-.192 9.223" stroke-width="1.2" stroke="#000" stroke-miterlimit="10" fill="none"/><path d="M35.44 121.676l-.19 9.22M35.25 130.895l7.89 4.777" stroke-width="1.2" stroke="#f00" stroke-miterlimit="10" fill="none"/><path d="M43.14 135.672l7.887 4.777" stroke-width="1.2" stroke="#000" stroke-miterlimit="10" fill="none"/><path d="M31.25 125.395h8v11h-8zm0 0" fill="#fff"/><use xlink:href="#a" x="31.25" y="134.058" fill="#f00"/><path d="M51.027 140.45l16.16-8.89M54.734 143.363l12.93-7.113M50.645 158.887l.382-18.438M67.188 131.56l15.777 9.553M82.965 141.113l-.383 18.438M78.59 142.867l-.31 14.75M82.582 159.55l-16.16 8.89M82.582 159.55l15.777 9.555M66.422 168.44l-15.777-9.553M67.09 163.773l-12.62-7.644M96.19 169.06l-.19 9.22" stroke-width="1.2" stroke="#000" stroke-miterlimit="10" fill="none"/><path d="M96 178.28l-.19 9.22" stroke-width="1.2" stroke="#f00" stroke-miterlimit="10" fill="none"/><path d="M100.53 169.148l-.194 9.223" stroke-width="1.2" stroke="#000" stroke-miterlimit="10" fill="none"/><path d="M100.336 178.37l-.19 9.22" stroke-width="1.2" stroke="#f00" stroke-miterlimit="10" fill="none"/><path d="M98.36 169.105l8.08-4.445" stroke-width="1.2" stroke="#000" stroke-miterlimit="10" fill="none"/><path d="M106.44 164.66l8.083-4.44" stroke-width="1.2" stroke="#00f" stroke-miterlimit="10" fill="none"/><path d="M93.977 182.047h8v11h-8zm0 0" fill="#fff"/><use xlink:href="#a" x="93.977" y="190.71" fill="#f00"/><path d="M114.523 160.22l7.887 4.772" stroke-width="1.2" stroke="#00f" stroke-miterlimit="10" fill="none"/><path d="M122.41 164.992l7.89 4.778M114.906 141.777l-.19 9.22" stroke-width="1.2" stroke="#000" stroke-miterlimit="10" fill="none"/><path d="M114.715 150.996l-.192 9.223" stroke-width="1.2" stroke="#00f" stroke-miterlimit="10" fill="none"/><path d="M111.523 154.72h7v11h-7zm0 0" fill="#fff"/><use xlink:href="#b" x="111.523" y="163.382" fill="#00f"/><path d="M130.3 169.77l16.16-8.887M146.46 160.883l.384-18.442M146.844 142.44l-15.778-9.55M146.844 142.44l17.715 5.146M151.988 124.73l-5.144 17.71M131.066 132.89l-16.16 8.887M164.56 147.586l2.57-8.856" stroke-width="1.2" stroke="#000" stroke-miterlimit="10" fill="none"/><path d="M167.13 138.73l2.57-8.855M169.7 129.875l-8.856-2.574" stroke-width="1.2" stroke="#00f" stroke-miterlimit="10" fill="none"/><path d="M160.844 127.3l-8.856-2.57" stroke-width="1.2" stroke="#000" stroke-miterlimit="10" fill="none"/><path d="M169.7 129.875l8.08-4.445" stroke-width="1.2" stroke="#00f" stroke-miterlimit="10" fill="none"/><path d="M177.78 125.43l8.083-4.446" stroke-width="1.2" stroke="#000" stroke-miterlimit="10" fill="none"/><path d="M166.7 124.375h7v11h-7zm0 0" fill="#fff"/><use xlink:href="#b" x="166.699" y="133.038" fill="#00f"/><path d="M185.863 120.984l15.778 9.555M201.64 130.54l-.386 18.437M205.94 132.473l-.307 14.754M217.8 121.652l-16.16 8.887M201.254 148.977l15.78 9.554M217.035 158.53l16.16-8.885M216.56 153.84l12.928-7.11M233.195 149.645l.383-18.442M233.195 149.645l15.778 9.55M233.578 131.203l-15.777-9.55M229.754 133.96l-12.62-7.644M248.973 159.195l7.886 4.778" stroke-width="1.2" stroke="#000" stroke-miterlimit="10" fill="none"/><path d="M256.86 163.973l7.89 4.777" stroke-width="1.2" stroke="#00f" stroke-miterlimit="10" fill="none"/><path d="M248.3 163.863l6.313 3.82" stroke-width="1.2" stroke="#000" stroke-miterlimit="10" fill="none"/><path d="M254.613 167.684l6.313 3.82" stroke-width="1.2" stroke="#00f" stroke-miterlimit="10" fill="none"/><path d="M252.797 156.438l6.312 3.82" stroke-width="1.2" stroke="#000" stroke-miterlimit="10" fill="none"/><path d="M259.11 160.258l6.308 3.824" stroke-width="1.2" stroke="#00f" stroke-miterlimit="10" fill="none"/><path d="M261.75 163.25h7v11h-7zm0 0" fill="#fff"/><use xlink:href="#b" x="261.75" y="171.913" fill="#00f"/></g></svg>
